X:160
%%titlespace -12
%%musicspace -15
T:Lemmy Brazil's No. 2
M:4/4
L:1/8
K:D
A>G |"D"F2A2 B2A2 | "Bm"d>ef>A B2A>G | "G"F>Ad>A B>de>f | "A"g2f2e2A>G | 
"D"F2A2B2A2 | "Bm"d>ef>A B2 A>G | "D"F>Ad>A "G"B>df>g | "A"e2c2"D"d2 ::
f>g | "D"a>fd>f a2f>e | "Bm"d>ef>A B2A>G | "G"F>Ad>A B>de>f | "A"g2f2e2f>g | 
"D"a>fd>f a2f>e | "Bm"d>ef>A B2A>G | "D"F>Ad>A "G"B>df>g | "A"e2c2"D"d2 :|

